X: 106
T: No_42_Song_of_the_Women_by_the_Sea.krn
N: Derived from No_42_Song_of_the_Women_by_the_Sea.krn
%%abc-version 2.0
%%abcx-abcm2ps-target-version 5.9.1 (29 Sep 2008)
%%abc-creator hum2abc beta
%%abcx-conversion-date 2019/03/15 08:37:56
%%humdrum-veritas 788781571
%%humdrum-veritas-data 1479030732
%%linebreak <none>
%%barnumbers 0
L: 1/8
M: 2/4
K: A clef=bass
[K:clef=bass][M:2/4]A,A, A,G, [I:setbarnb 2]| 
A,G, F,C, | 
G,2G,F, | 
G,2G,2 | 
G,4 | 
A,A, A,A, | 
A,G, F,C, | 
G,2G,F, | 
G,2G,2 | 
G,4 | 
A,A, A,A, | 
A,G, A,G, | 
F,C,C,2 | 
G,2G,F, ||  
[M:3/4]G,3/G,/G,2G,3/F,/ ||  
[M:2/4]G,2G,3/F,/ ||  
[M:3/8]F,G,F, ||  
[M:2/4]F,3F, | 
F,4 :|]  



